src/assets/tokens/DGEN.svg

<svg width="220" height="220" viewBox="0 0 220 220" fill="none" xmlns="http://www.w3.org/2000/svg">
<g clip-path="url(#clip0_386_4858)">
<g clip-path="url(#clip1_386_4858)">
<path d="M218.901 110C218.901 170.145 170.145 218.901 110 218.901C49.8554 218.901 1.09853 170.145 1.09853 110C1.09853 49.8554 49.8554 1.09853 110 1.09853C170.145 1.09853 218.901 49.8554 218.901 110Z" fill="#7834C7" stroke="url(#paint0_linear_386_4858)" stroke-width="2.19706"></path>
</g>
</g>
<path d="M48.9985 48.068C62.2304 52.0878 74.198 59.4505 83.742 69.4429L105.7 92.4322L93.5881 105.118L70.2503 82.902C60.2437 73.3765 52.8705 61.4334 48.8445 48.2291L48.7746 48L48.9985 48.068Z" fill="white"></path>
<path d="M150.817 135.686C155.717 130.794 155.717 122.863 150.817 117.971L149.042 116.2C149.042 116.2 149.263 119.515 144.62 124.157L140.169 128.6L126.195 113.946L114.558 125.005L129.521 139.229L125.084 143.657C120.426 148.307 117.099 148.086 117.099 148.086L118.873 149.857C123.774 154.749 131.719 154.749 136.62 149.857L150.817 135.686Z" fill="white"></path>
<path d="M47 159.6L59.4225 172C59.4225 172 59.2009 168.678 63.8592 164.029L76.2816 151.629L67.4085 142.771L54.9859 155.171C50.3277 159.821 47 159.6 47 159.6Z" fill="white"></path>
<path d="M156.141 164.029L143.718 151.629L152.592 142.771L165.014 155.171C169.672 159.821 173 159.6 173 159.6L160.577 172C160.577 172 160.799 168.678 156.141 164.029Z" fill="white"></path>
<path d="M90.4789 139.229L94.9155 143.657C99.5738 148.307 102.901 148.086 102.901 148.086L101.127 149.857C96.2262 154.749 88.2808 154.749 83.3803 149.857L69.1831 135.686C64.2826 130.794 64.2825 122.863 69.1831 117.971L70.9577 116.2C70.9577 116.2 70.7367 119.513 75.3767 124.154L79.831 128.6L136.25 69.4671C145.799 59.4592 157.98 52.024 171.225 48C167.194 61.2217 159.745 73.3802 149.719 82.9116L90.4789 139.229Z" fill="white"></path>
<defs>
<linearGradient id="paint0_linear_386_4858" x1="204.6" y1="42.9" x2="75.9" y2="220" gradientUnits="userSpaceOnUse">
<stop stop-color="#B985F5"></stop>
<stop offset="1" stop-color="#1C1528" stop-opacity="0"></stop>
</linearGradient>
<clipPath id="clip0_386_4858">
<rect width="220" height="220" fill="white"></rect>
</clipPath>
<clipPath id="clip1_386_4858">
<rect width="220" height="220" fill="white"></rect>
</clipPath>
</defs>
</svg>

<svg fill="none" height="220" width="220" xmlns="http://www.w3.org/2000/svg"><linearGradient id="c" gradientUnits="userSpaceOnUse" x1="204.6" x2="75.9" y1="42.9" y2="220"><stop offset="0" stop-color="#b985f5"/><stop offset="1" stop-color="#1c1528" stop-opacity="0"/></linearGradient><clipPath id="a"><path d="M0 0h220v220H0z"/></clipPath><clipPath id="b"><path d="M0 0h220v220H0z"/></clipPath><g clip-path="url(#a)"><g clip-path="url(#b)"><path d="M218.901 110c0 60.145-48.756 108.901-108.901 108.901S1.099 170.145 1.099 110 49.855 1.099 110 1.099 218.901 49.855 218.901 110z" fill="#7834c7" stroke="url(#c)" stroke-width="2.197"/></g></g><g fill="#fff"><path d="M48.998 48.068a80.335 80.335 0 0 1 34.744 21.375l21.958 22.99-12.112 12.685L70.25 82.902a80.142 80.142 0 0 1-21.406-34.673l-.07-.229zm101.819 87.618c4.9-4.892 4.9-12.823 0-17.715l-1.775-1.771s.221 3.315-4.422 7.957l-4.451 4.443-13.974-14.654-11.637 11.059 14.963 14.224-4.437 4.428c-4.658 4.65-7.985 4.429-7.985 4.429l1.774 1.771c4.901 4.892 12.846 4.892 17.747 0zM47 159.6L59.422 172s-.221-3.322 4.437-7.971l12.423-12.4-8.873-8.858-12.423 12.4C50.328 159.821 47 159.6 47 159.6zm109.141 4.429l-12.423-12.4 8.874-8.858 12.422 12.4c4.658 4.65 7.986 4.429 7.986 4.429L160.577 172s.222-3.322-4.436-7.971z"/><path d="M90.479 139.229l4.436 4.428c4.659 4.65 7.986 4.429 7.986 4.429l-1.774 1.771c-4.9 4.892-12.846 4.892-17.747 0l-14.197-14.171c-4.9-4.892-4.9-12.823 0-17.715l1.775-1.771s-.221 3.313 4.419 7.954l4.454 4.446 56.419-59.133C145.799 59.46 157.98 52.024 171.225 48c-4.031 13.222-11.48 25.38-21.506 34.912z"/></g></svg>
